X:320
T:Auchmountains Bonnie Glens 
C:Joe Buchanan's Scottish Tome - Page 095.3
I:095 3
R:March
Z:Carl Allison
L:1/4
M:4/4
K:C
e | a (g/f/) e a | c (e/c/) A (c/e/) | d (B/d/) c B/A/ | G B B e |
a (g/f/) e a | c (e/c/) A (c/e/) | d f e/f/g/a/ c A A :|
(e/d/) | c e e c/A/ | d f f a | e (A/a/) f/e/d/c/ | d B B (e/d/) |
c e e (c/A/) | d f f a | d f e/f/g/a/ | c A A :|

